img/camper_icon-icons.com_59911.svg

<svg width="800" height="800" fill="none" xmlns="http://www.w3.org/2000/svg"><path d="M406.469 251.33h-47.912c-22.686 0-41.143 18.457-41.143 41.142v153.177c0 22.686 18.457 41.143 41.143 41.143h47.912c22.686 0 41.143-18.457 41.143-41.143V292.472c0-22.685-18.457-41.142-41.143-41.142Zm15.106 194.319c0 8.33-6.775 15.104-15.105 15.104h-47.912c-8.33 0-15.105-6.773-15.105-15.104V292.472c0-8.329 6.775-15.104 15.105-15.104h47.912c8.33 0 15.105 6.775 15.105 15.104v153.177ZM235.734 252.512H94.087c-24.53 0-44.487 19.957-44.487 44.488v1.537c0 24.53 19.957 44.488 44.487 44.488h141.647c24.53 0 44.487-19.958 44.487-44.488V297c.001-24.531-19.956-44.488-44.487-44.488Zm18.45 46.024c0 10.175-8.274 18.45-18.449 18.45H94.087c-10.174 0-18.45-8.275-18.45-18.45v-1.537c0-10.175 8.276-18.45 18.45-18.45h141.647c10.175 0 18.449 8.275 18.449 18.45v1.537h.001Z" fill="#FBD42C"/><path d="M710.464 462.675c0-7.188-5.826-13.019-13.02-13.019-7.184 0-13.018 5.83-13.018 13.019v49.719H503.094c9.395-11.725 15.05-26.568 15.05-42.725V261.495c0-37.768-30.725-68.495-68.492-68.495H70.976C33.208 193 2.48 223.728 2.48 261.495v208.174c0 37.766 30.729 68.494 68.495 68.494h40.153a35.285 35.285 0 0 1-.777-7.295c0-6.9 2.067-13.295 5.5-18.742 6.263-9.932 17.254-16.594 29.837-16.594 12.583 0 23.575 6.662 29.837 16.594 3.433 5.447 5.5 11.842 5.5 18.742 0 2.504-.28 4.938-.777 7.295h72.229a35.217 35.217 0 0 1-.777-7.295c0-6.9 2.066-13.295 5.5-18.742 6.262-9.932 17.254-16.594 29.837-16.594 12.583 0 23.575 6.662 29.838 16.594 3.433 5.447 5.5 11.842 5.5 18.742 0 2.504-.28 4.938-.777 7.295h74.393c.855.174 1.734.27 2.639.27h226.282v17.236c0 7.188 5.834 13.018 13.02 13.018 7.191 0 13.019-5.83 13.019-13.018v-17.236h45.261c5.057 0 9.395-2.922 11.551-7.139 1.672-2.189 2.703-4.893 2.703-7.865v-60.754h-.002ZM345.46 512.126c-7.944-24.699-31.12-42.633-58.422-42.633-27.302 0-50.478 17.934-58.422 42.633h-24.505c-7.944-24.699-31.12-42.633-58.422-42.633-27.302 0-50.477 17.934-58.421 42.633H70.975c-23.411 0-42.456-19.047-42.456-42.457V261.495c0-23.412 19.044-42.457 42.456-42.457h378.677c23.408 0 42.453 19.045 42.453 42.457v208.174c0 23.41-19.045 42.457-42.453 42.457H345.46Z" fill="#FBD42C"/><path d="M145.815 555.427c13.01 0 23.557-10.547 23.557-23.557 0-13.011-10.547-23.558-23.557-23.558-13.01 0-23.557 10.547-23.557 23.558 0 13.01 10.547 23.557 23.557 23.557ZM287.162 555.427c13.011 0 23.557-10.547 23.557-23.557 0-13.011-10.546-23.558-23.557-23.558-13.01 0-23.557 10.547-23.557 23.558 0 13.01 10.547 23.557 23.557 23.557ZM368.874 357.531c-7.396 0-13.394 5.997-13.394 13.389 0 7.393 5.998 13.39 13.394 13.39 7.392 0 13.389-5.997 13.389-13.39-.001-7.392-5.998-13.389-13.389-13.389ZM590.817 581.086H13.019C5.83 581.086 0 586.916 0 594.106c0 7.188 5.83 13.02 13.019 13.02h577.798c7.186 0 13.02-5.832 13.02-13.02 0-7.189-5.834-13.02-13.02-13.02ZM672.651 581.086h-37.197c-7.186 0-13.02 5.83-13.02 13.02 0 7.188 5.834 13.02 13.02 13.02h37.197c7.186 0 13.02-5.832 13.02-13.02 0-7.189-5.834-13.02-13.02-13.02Z" fill="#FBD42C"/></svg>

<svg width="800" height="800" viewBox="0 0 800 800" fill="none" xmlns="http://www.w3.org/2000/svg">
<path d="M406.469 251.33H358.557C335.871 251.33 317.414 269.787 317.414 292.472V445.649C317.414 468.335 335.871 486.792 358.557 486.792H406.469C429.155 486.792 447.612 468.335 447.612 445.649V292.472C447.612 269.787 429.155 251.33 406.469 251.33ZM421.575 445.649C421.575 453.979 414.8 460.753 406.47 460.753H358.558C350.228 460.753 343.453 453.98 343.453 445.649V292.472C343.453 284.143 350.228 277.368 358.558 277.368H406.47C414.8 277.368 421.575 284.143 421.575 292.472V445.649Z" fill="#FBD42C"/>
<path d="M235.734 252.512H94.0866C69.5566 252.512 49.5996 272.469 49.5996 297V298.537C49.5996 323.067 69.5566 343.025 94.0866 343.025H235.734C260.264 343.025 280.221 323.067 280.221 298.537V297C280.222 272.469 260.265 252.512 235.734 252.512ZM254.184 298.536C254.184 308.711 245.91 316.986 235.735 316.986H94.0866C83.9126 316.986 75.6376 308.711 75.6376 298.536V296.999C75.6376 286.824 83.9126 278.549 94.0866 278.549H235.734C245.909 278.549 254.183 286.824 254.183 296.999V298.536H254.184Z" fill="#FBD42C"/>
<path d="M710.464 462.675C710.464 455.487 704.638 449.656 697.444 449.656C690.26 449.656 684.426 455.486 684.426 462.675V512.394H503.094C512.489 500.669 518.144 485.826 518.144 469.669V261.495C518.144 223.727 487.419 193 449.652 193H70.9755C33.2075 193 2.48047 223.728 2.48047 261.495V469.669C2.48047 507.435 33.2085 538.163 70.9755 538.163H84.7895H111.128C110.631 535.806 110.351 533.372 110.351 530.868C110.351 523.968 112.418 517.573 115.851 512.126C122.114 502.194 133.105 495.532 145.688 495.532C158.271 495.532 169.263 502.194 175.525 512.126C178.958 517.573 181.025 523.968 181.025 530.868C181.025 533.372 180.745 535.806 180.248 538.163H206.587H226.137H252.477C251.979 535.806 251.7 533.372 251.7 530.868C251.7 523.968 253.766 517.573 257.2 512.126C263.462 502.194 274.454 495.532 287.037 495.532C299.62 495.532 310.612 502.194 316.875 512.126C320.308 517.573 322.375 523.968 322.375 530.868C322.375 533.372 322.095 535.806 321.598 538.163H347.937H395.991C396.846 538.337 397.725 538.433 398.63 538.433H624.912V555.669C624.912 562.857 630.746 568.687 637.932 568.687C645.123 568.687 650.951 562.857 650.951 555.669V538.433H696.212C701.269 538.433 705.607 535.511 707.763 531.294C709.435 529.105 710.466 526.401 710.466 523.429V462.675H710.464ZM345.46 512.126C337.516 487.427 314.34 469.493 287.038 469.493C259.736 469.493 236.56 487.427 228.616 512.126H204.111C196.167 487.427 172.991 469.493 145.689 469.493C118.387 469.493 95.2115 487.427 87.2675 512.126H70.9755C47.5635 512.126 28.5185 493.079 28.5185 469.669V261.495C28.5185 238.083 47.5635 219.038 70.9755 219.038H449.652C473.06 219.038 492.105 238.083 492.105 261.495V469.669C492.105 493.079 473.06 512.126 449.652 512.126H345.46Z" fill="#FBD42C"/>
<path d="M145.815 555.427C158.825 555.427 169.372 544.88 169.372 531.87C169.372 518.859 158.825 508.312 145.815 508.312C132.805 508.312 122.258 518.859 122.258 531.87C122.258 544.88 132.805 555.427 145.815 555.427Z" fill="#FBD42C"/>
<path d="M287.162 555.427C300.173 555.427 310.719 544.88 310.719 531.87C310.719 518.859 300.173 508.312 287.162 508.312C274.152 508.312 263.605 518.859 263.605 531.87C263.605 544.88 274.152 555.427 287.162 555.427Z" fill="#FBD42C"/>
<path d="M368.874 357.531C361.478 357.531 355.48 363.528 355.48 370.92C355.48 378.313 361.478 384.31 368.874 384.31C376.266 384.31 382.263 378.313 382.263 370.92C382.262 363.528 376.265 357.531 368.874 357.531Z" fill="#FBD42C"/>
<path d="M590.817 581.086H13.019C5.83 581.086 0 586.916 0 594.106C0 601.294 5.83 607.126 13.019 607.126H590.817C598.003 607.126 603.837 601.294 603.837 594.106C603.837 586.917 598.003 581.086 590.817 581.086Z" fill="#FBD42C"/>
<path d="M672.651 581.086H635.454C628.268 581.086 622.434 586.916 622.434 594.106C622.434 601.294 628.268 607.126 635.454 607.126H672.651C679.837 607.126 685.671 601.294 685.671 594.106C685.671 586.917 679.837 581.086 672.651 581.086Z" fill="#FBD42C"/>
</svg>
